teeny/outline/thumb-down.svg

<svg width="15" height="15" viewBox="0 0 15 15" fill="none" xmlns="http://www.w3.org/2000/svg">
<path d="M3.5 9.5H3V9.6456L3.07817 9.76844L3.5 9.5ZM6.19761 13.7391L6.61944 13.4707L6.19761 13.7391ZM8.86455 12.2291L8.41734 12.4527L8.86455 12.2291ZM7.5 9.5V9C7.32671 9 7.16578 9.08973 7.07467 9.23713C6.98357 9.38454 6.97529 9.56861 7.05279 9.72361L7.5 9.5ZM14.5 4.5H15V4.33333L14.9 4.2L14.5 4.5ZM12.1 1.3L12.5 1V1L12.1 1.3ZM8.28158 14.2311L8.53883 14.6598H8.53883L8.28158 14.2311ZM1 10V0H0V10H1ZM3.07817 9.76844L5.77577 14.0075L6.61944 13.4707L3.92183 9.23156L3.07817 9.76844ZM9.31176 12.0055L7.94721 9.27639L7.05279 9.72361L8.41734 12.4527L9.31176 12.0055ZM7.5 10H12.5V9H7.5V10ZM15 7.5V4.5H14V7.5H15ZM14.9 4.2L12.5 1L11.7 1.6L14.1 4.8L14.9 4.2ZM10.5 0H5.5V1H10.5V0ZM3 2.5V9.5H4V2.5H3ZM12.5 10C13.8807 10 15 8.88071 15 7.5H14C14 8.32843 13.3284 9 12.5 9V10ZM5.5 0C4.11929 0 3 1.11929 3 2.5H4C4 1.67157 4.67157 1 5.5 1V0ZM8.53883 14.6598C9.45039 14.1129 9.78718 12.9563 9.31176 12.0055L8.41734 12.4527C8.65906 12.9362 8.48782 13.5242 8.02433 13.8023L8.53883 14.6598ZM12.5 1C12.0279 0.370486 11.2869 0 10.5 0V1C10.9721 1 11.4167 1.22229 11.7 1.6L12.5 1ZM5.77577 14.0075C6.3678 14.9379 7.59324 15.2271 8.53883 14.6598L8.02433 13.8023C7.54354 14.0908 6.92046 13.9437 6.61944 13.4707L5.77577 14.0075Z" fill="black"/>
</svg>

<svg viewBox="0 0 15 15" xmlns="http://www.w3.org/2000/svg"><path d="M3.5 9.5H3v.14l.07.12 .42-.27Zm2.69 4.23l.42-.27 -.43.26Zm2.66-1.51l-.45.22 .44-.23ZM7.48 9.49v-.5c-.18 0-.34.08-.43.23 -.1.14-.1.33-.03.48l.44-.23Zm7-5h.5v-.17l-.1-.14 -.4.3Zm-2.4-3.2l.4-.3v0l-.4.3ZM8.26 14.22l.25.42v0l-.26-.43ZM.97 9.98v-10h-1v10h1Zm2.07-.24l2.69 4.23 .84-.54 -2.7-4.24 -.85.53Zm6.23 2.23L7.9 9.24l-.9.44 1.36 2.72 .89-.45ZM7.45 9.96h5v-1h-5v1Zm7.5-2.5v-3h-1v3h1Zm-.1-3.3l-2.4-3.2 -.8.6 2.4 3.2 .8-.6Zm-4.4-4.2h-5v1h5v-1Zm-7.5 2.5v7h1v-7h-1Zm9.5 7.5c1.38 0 2.5-1.12 2.5-2.5h-1c0 .82-.68 1.5-1.5 1.5v1Zm-7-10c-1.39 0-2.5 1.11-2.5 2.5h1c0-.83.67-1.5 1.5-1.5v-1Zm3.03 14.65c.91-.55 1.24-1.71.77-2.66l-.9.44c.24.48.07 1.07-.4 1.34l.51.85ZM12.44.95c-.48-.63-1.22-1-2-1v1c.47 0 .91.22 1.2.6l.8-.6Zm-6.73 13c.59.93 1.81 1.21 2.76.65l-.52-.86c-.49.28-1.11.14-1.41-.34l-.85.53Z"/></svg>
